polaris-icons/icons/new-icons/PinMajor.svg

<svg width="20" height="20" viewBox="0 0 20 20" fill="none" xmlns="http://www.w3.org/2000/svg">
<path d="M6.625 5.5C6.625 5.1029 6.88426 4.64883 7.50282 4.26223C8.11257 3.88114 8.99383 3.625 10 3.625C11.0062 3.625 11.8874 3.88114 12.4972 4.26223C13.1157 4.64883 13.375 5.1029 13.375 5.5C13.375 5.8971 13.1157 6.35117 12.4972 6.73777C11.8874 7.11886 11.0062 7.375 10 7.375C8.99383 7.375 8.11257 7.11886 7.50282 6.73777C6.88426 6.35117 6.625 5.8971 6.625 5.5Z" fill="#4A4A4A"/>
<path d="M13.0773 7.84799C12.2491 8.34085 11.164 8.625 10 8.625C8.83602 8.625 7.75089 8.34085 6.92267 7.84799L6.40716 10.1678C5.23919 10.6721 4.5 11.4179 4.5 12.25C4.5 13.6416 6.56724 14.7917 9.25 14.9746V16.75C9.25 17.1642 9.58579 17.5 10 17.5C10.4142 17.5 10.75 17.1642 10.75 16.75V14.9746C13.4328 14.7917 15.5 13.6416 15.5 12.25C15.5 11.4179 14.7608 10.6721 13.5928 10.1678L13.0773 7.84799Z" fill="#4A4A4A"/>
</svg>

<svg viewBox="0 0 20 20" xmlns="http://www.w3.org/2000/svg"><path d="M6.625 5.5c0-.397.26-.851.878-1.238.61-.38 1.49-.637 2.497-.637 1.006 0 1.887.256 2.497.637.619.387.878.84.878 1.238 0 .397-.26.851-.878 1.238-.61.38-1.49.637-2.497.637-1.006 0-1.887-.256-2.497-.637-.619-.387-.878-.84-.878-1.238Z" fill="#5C5F62"/><path d="M13.077 7.848c-.828.493-1.913.777-3.077.777s-2.25-.284-3.077-.777l-.516 2.32c-1.168.504-1.907 1.25-1.907 2.082 0 1.392 2.067 2.542 4.75 2.725v1.775a.75.75 0 0 0 1.5 0v-1.775c2.683-.183 4.75-1.333 4.75-2.725 0-.832-.74-1.578-1.907-2.082l-.516-2.32Z" fill="#5C5F62"/></svg>
